src/assets/filled/PathSquare.svg

<?xml version="1.0" encoding="UTF-8"?>
<svg width="24" height="24" viewBox="0 0 24 24" xmlns="http://www.w3.org/2000/svg">
 <path d="m16.19 2h-8.38c-3.64 0-5.81 2.17-5.81 5.81v8.37c0 3.65 2.17 5.82 5.81 5.82h8.37c3.64 0 5.81-2.17 5.81-5.81v-8.38c0.01-3.64-2.16-5.81-5.8-5.81zm0.47 9.25-1.62 1.02 0.14 2.4c0.13 1.34-0.33 1.8-1.6 1.95l-5.07 0.6c-0.27824 0.0379-0.37268-0.2773-0.17411-0.4759l1.5441-1.5441c0.29-0.29 0.29-0.77 0-1.06-0.3-0.29-0.77-0.29-1.07 0l-1.5352 1.543c-0.19779 0.1988-0.51267 0.1049-0.47478-0.173l0.59-5.07c0.16-1.27 0.62-1.68 1.96-1.6l2.39 0.14 1.03-1.63c0.47-0.74 1.43-0.78 2.13-0.08l1.85 1.85c0.66 0.65 0.62 1.68-0.09 2.13z"/>
</svg>

<svg width="24" height="24" viewBox="0 0 24 24"  xmlns="http://www.w3.org/2000/svg">
<path d="M16.19 2H7.81C4.17 2 2 4.17 2 7.81V16.18C2 19.83 4.17 22 7.81 22H16.18C19.82 22 21.99 19.83 21.99 16.19V7.81C22 4.17 19.83 2 16.19 2ZM16.66 11.25L15.04 12.27L15.18 14.67C15.31 16.01 14.85 16.47 13.58 16.62L8.51 17.22C8.23176 17.2579 8.13732 16.9427 8.33589 16.7441L9.88 15.2C10.17 14.91 10.17 14.43 9.88 14.14C9.58 13.85 9.11 13.85 8.81 14.14L7.27478 15.683C7.07699 15.8818 6.76211 15.7879 6.8 15.51L7.39 10.44C7.55 9.17 8.01 8.76 9.35 8.84L11.74 8.98L12.77 7.35C13.24 6.61 14.2 6.57 14.9 7.27L16.75 9.12C17.41 9.77 17.37 10.8 16.66 11.25Z" />
</svg>
